X:207
T:Quick March. RH.207
T:Handel’s Quick March. RH.207
R:March
S:Rev.R.Harrison’s MS,c1815,Cumbria
N:I switched the order of the T: fields, and halved the
N:lengths of the chords, to allow correct play. PJH.
O:England
A:Temple Sowerby,Cumbria
Z:vmp.Simon Wilson. Review PJH, 2008.
M:2/4
L:1/8
Q:1/4=75
K:G
(d/c/)|BdAB|GDDE|F>GAB|(G/F/G/A/) GA|\
(B/A/B/c/) de|cAAG|FdE^c|d2[dD]:|!
|:(d/e/4f/4)|ecce|cBcg|cA (A/B/c/A/)|BGGA|\
BGcA|BGGA|BGcA|BGGA|!
Bc/d/ cB|BA z(d/e/4f/4)|gfed|gGGE|\
E/(F/G/E/) D/(E/F/D/)|DAAC|B,GA,F|G2[GG,]:|

